X: 37772
T: Sondheim's Frolics
R: jig
M: 6/8
K: Amajor
|:cde age|~c3 cBA|~d3 def|eAc Bc/B/A|
cde age|~c3 cBA|FAc BAG|1 ~A3 A2B:|2 ~A2B cAE||
|:FAe fga|~e3 ecA|~d3 def|eAc Bc/B/A|
FAe fga|~e3 ecA|cBA B=cB|~A3 A2E|
FAd efg|aed cBA|~d3 def|eAc Bce|
fdf ~g3|aba ecA|FAc BAG|~A3 A2B||

